packages/dnb-ui-lib/assets/icons/transfer_to_medium.svg

<svg width="24" height="24" viewBox="0 0 24 24" fill="none" xmlns="http://www.w3.org/2000/svg">
<path d="M17.4473 1.50128L17.7697 2.17842V2.17842L17.4473 1.50128ZM18.835 2.11679L18.1167 2.3323V2.3323L18.835 2.11679ZM2.25 8.49997C2.25 8.91418 2.58579 9.24997 3 9.24997C3.41421 9.24997 3.75 8.91418 3.75 8.49997H2.25ZM3.75 20.5C3.75 20.0858 3.41421 19.75 3 19.75C2.58579 19.75 2.25 20.0858 2.25 20.5H3.75ZM1 13.75C0.585786 13.75 0.25 14.0858 0.25 14.5C0.25 14.9142 0.585786 15.25 1 15.25V13.75ZM5.46967 16.4696C5.17678 16.7625 5.17678 17.2374 5.46967 17.5303C5.76256 17.8232 6.23744 17.8232 6.53033 17.5303L5.46967 16.4696ZM8.5 14.5L9.03033 15.0303C9.32322 14.7374 9.32322 14.2625 9.03033 13.9696L8.5 14.5ZM6.53033 11.4696C6.23744 11.1767 5.76256 11.1767 5.46967 11.4696C5.17678 11.7625 5.17678 12.2374 5.46967 12.5303L6.53033 11.4696ZM21 22.25H5V23.75H21V22.25ZM5 22.25C4.30964 22.25 3.75 21.6903 3.75 21H2.25C2.25 22.5188 3.48122 23.75 5 23.75V22.25ZM21 23.75C22.5188 23.75 23.75 22.5188 23.75 21H22.25C22.25 21.6903 21.6904 22.25 21 22.25V23.75ZM21 6.74998C21.6904 6.74998 22.25 7.30963 22.25 7.99998H23.75C23.75 6.4812 22.5188 5.24998 21 5.24998V6.74998ZM5 5.24998C3.48122 5.24998 2.25 6.4812 2.25 7.99998H3.75C3.75 7.30963 4.30964 6.74998 5 6.74998V5.24998ZM5 6.74998H8V5.24998H5V6.74998ZM8.32245 6.67713L17.7697 2.17842L17.1248 0.82413L7.67755 5.32284L8.32245 6.67713ZM8 6.74998H20V5.24998H8V6.74998ZM20 6.74998H21V5.24998H20V6.74998ZM18.1167 2.3323L19.2816 6.21549L20.7184 5.78447L19.5534 1.90128L18.1167 2.3323ZM17.7697 2.17842C17.9081 2.11253 18.0726 2.18551 18.1167 2.3323L19.5534 1.90128C19.2452 0.87375 18.0934 0.36291 17.1248 0.82413L17.7697 2.17842ZM22.25 7.99998V21H23.75V7.99998H22.25ZM3.75 8.49997V7.99998H2.25V8.49997H3.75ZM3.75 21V20.5H2.25V21H3.75ZM6.53033 17.5303L9.03033 15.0303L7.96967 13.9696L5.46967 16.4696L6.53033 17.5303ZM9.03033 13.9696L6.53033 11.4696L5.46967 12.5303L7.96967 15.0303L9.03033 13.9696ZM1 15.25H8.5V13.75H1V15.25Z" fill="black"/>
</svg>

<svg width="24" height="24" viewBox="0 0 24 24" fill="none" xmlns="http://www.w3.org/2000/svg"><path d="M17.447 1.501l.323.677-.323-.677zm1.388.616l-.718.215.718-.215zM2.25 8.5a.75.75 0 001.5 0h-1.5zm1.5 12a.75.75 0 00-1.5 0h1.5zM1 13.75a.75.75 0 000 1.5v-1.5zm4.47 2.72a.75.75 0 001.06 1.06l-1.06-1.06zM8.5 14.5l.53.53a.75.75 0 000-1.06l-.53.53zm-1.97-3.03a.75.75 0 10-1.06 1.06l1.06-1.06zM21 22.25H5v1.5h16v-1.5zm-16 0c-.69 0-1.25-.56-1.25-1.25h-1.5A2.75 2.75 0 005 23.75v-1.5zm16 1.5A2.75 2.75 0 0023.75 21h-1.5c0 .69-.56 1.25-1.25 1.25v1.5zm0-17c.69 0 1.25.56 1.25 1.25h1.5A2.75 2.75 0 0021 5.25v1.5zM5 5.25A2.75 2.75 0 002.25 8h1.5c0-.69.56-1.25 1.25-1.25v-1.5zm0 1.5h3v-1.5H5v1.5zm3.322-.073l9.448-4.499-.645-1.354-9.447 4.499.644 1.354zM8 6.75h12v-1.5H8v1.5zm12 0h1v-1.5h-1v1.5zm-1.883-4.418l1.165 3.883 1.436-.43L19.553 1.9l-1.436.431zm-.347-.154a.25.25 0 01.347.154l1.436-.43A1.75 1.75 0 0017.125.823l.645 1.354zM22.25 8v13h1.5V8h-1.5zm-18.5.5V8h-1.5v.5h1.5zm0 12.5v-.5h-1.5v.5h1.5zm2.78-3.47l2.5-2.5-1.06-1.06-2.5 2.5 1.06 1.06zm2.5-3.56l-2.5-2.5-1.06 1.06 2.5 2.5 1.06-1.06zM1 15.25h7.5v-1.5H1v1.5z" fill="#000"/></svg>
